src/lib/packages/icons/src/assets/filled/folder-alt.svg

<svg width="24" height="24" viewBox="0 0 24 24" fill="none" xmlns="http://www.w3.org/2000/svg">
<path d="M21 16.05V17C21 19 20 20 18 20H6C4 20 3 19 3 17V16.05C3 15.884 3.13405 15.75 3.30005 15.75H20.7C20.866 15.75 21 15.884 21 16.05ZM18 7H13L10 4H6C4 4 3 5 3 7V13.95C3 14.116 3.13405 14.25 3.30005 14.25H20.7C20.866 14.25 21 14.116 21 13.95V10C21 8 20 7 18 7Z" fill="currentColor"/>
</svg>

<svg xmlns="http://www.w3.org/2000/svg" width="24" height="24" fill="none"><path fill="currentColor" d="M21 16.05V17c0 2-1 3-3 3H6c-2 0-3-1-3-3v-.95a.3.3 0 0 1 .3-.3h17.4a.3.3 0 0 1 .3.3ZM18 7h-5l-3-3H6C4 4 3 5 3 7v6.95a.3.3 0 0 0 .3.3h17.4a.3.3 0 0 0 .3-.3V10c0-2-1-3-3-3Z"/></svg>
